X: 33581
T: Rakes Of Kildare, The
R: jig
M: 6/8
K: Adorian
E2A AGA|Bcd e2f|~g3 efg|dBG BAG|
E2A AGA|Bcd e2f|gfe dBG|ABA A2E|
A2A AGA|Bcd e2f|~g3 efg|dBG BAG|
EAA AGA|Bcd e2f|gfe dBG|ABA A2e|
|:~a3 efg|~a3 b2a|~g3 efg|dBG BAG|
[1 ~a3 efg|~a3 b2a|gfe dBG|ABA A2e:|
[2 E2A AGA|Bcd e2f|gfe dBG|ABA A2E||

